src/assets/icons/soccer.svg

<svg xmlns="http://www.w3.org/2000/svg" height="48" width="48"><path d="M23.95 45.25q-4.35 0-8.225-1.675T8.975 39q-2.875-2.9-4.55-6.75Q2.75 28.4 2.75 24t1.675-8.25Q6.1 11.9 8.975 9t6.75-4.6Q19.6 2.7 23.95 2.7q4.4 0 8.275 1.7T39 9q2.9 2.9 4.6 6.75 1.7 3.85 1.7 8.25t-1.7 8.25Q41.9 36.1 39 39q-2.9 2.9-6.775 4.575-3.875 1.675-8.275 1.675Zm10-25.6 3.4-1.2.85-3.15q-1.65-2.55-4.075-4.4Q31.7 9.05 28.65 8.15l-3.2 2.1v3.4Zm-19.85 0 8.5-6v-3.4l-3.2-2.1q-3.05.9-5.475 2.75T9.85 15.3l1.05 3.15ZM11.45 35.2l2.95-.35 1.9-3.2-3-9.25-3.5-1.2-2.35 1.95q0 3.5.775 6.375T11.45 35.2ZM24 40.7q1.3 0 2.65-.275 1.35-.275 2.85-.575l1.55-3.55-1.6-2.7H18.6L17 36.3l1.65 3.55q1.25.3 2.65.575 1.4.275 2.7.275Zm-5.2-10H29l2.95-8.9L24 16.1l-8.05 5.7Zm17.8 4.5q2.4-2.8 3.175-5.675.775-2.875.775-6.375L38.2 21.5l-3.45.9-2.95 9.25 1.8 3.2Z"/></svg>

<?xml version="1.0" encoding="UTF-8" standalone="no"?>
<svg
   height="48"
   width="48"
   version="1.1"
   id="svg40"
   sodipodi:docname="soccer.svg"
   inkscape:version="1.2.1 (9c6d41e410, 2022-07-14)"
   xmlns:inkscape="http://www.inkscape.org/namespaces/inkscape"
   xmlns:sodipodi="http://sodipodi.sourceforge.net/DTD/sodipodi-0.dtd"
   xmlns="http://www.w3.org/2000/svg"
   xmlns:svg="http://www.w3.org/2000/svg">
  <defs
     id="defs44" />
  <sodipodi:namedview
     id="namedview42"
     pagecolor="#505050"
     bordercolor="#eeeeee"
     borderopacity="1"
     inkscape:showpageshadow="0"
     inkscape:pageopacity="0"
     inkscape:pagecheckerboard="0"
     inkscape:deskcolor="#505050"
     showgrid="false"
     inkscape:zoom="4.9166667"
     inkscape:cx="24"
     inkscape:cy="24.101695"
     inkscape:window-width="1500"
     inkscape:window-height="930"
     inkscape:window-x="-6"
     inkscape:window-y="-6"
     inkscape:window-maximized="1"
     inkscape:current-layer="svg40" />
  <path
     id="path38"
     d="m 23.95,45.25 q -4.35,0 -8.225,-1.675 Q 11.85,41.9 8.975,39 6.1,36.1 4.425,32.25 2.75,28.4 2.75,24 2.75,19.6 4.425,15.75 6.1,11.9 8.975,9 11.85,6.1 15.725,4.4 19.6,2.7 23.95,2.7 q 4.4,0 8.275,1.7 Q 36.1,6.1 39,9 q 2.9,2.9 4.6,6.75 1.7,3.85 1.7,8.25 0,4.4 -1.7,8.25 Q 41.9,36.1 39,39 36.1,41.9 32.225,43.575 28.35,45.25 23.95,45.25 Z m 10,-25.6 3.4,-1.2 0.85,-3.15 Q 36.55,12.75 34.125,10.9 31.7,9.05 28.65,8.15 l -3.2,2.1 v 3.4 z m -19.85,0 8.5,-6 v -3.4 L 19.4,8.15 Q 16.35,9.05 13.925,10.9 11.5,12.75 9.85,15.3 l 1.05,3.15 z m -2.65,15.55 2.95,-0.35 1.9,-3.2 -3,-9.25 -3.5,-1.2 -2.35,1.95 q 0,3.5 0.775,6.375 Q 9,32.4 11.45,35.2 Z M 24,40.7 q 1.3,0 2.65,-0.275 Q 28,40.15 29.5,39.85 l 1.55,-3.55 -1.6,-2.7 H 18.6 l -1.6,2.7 1.65,3.55 q 1.25,0.3 2.65,0.575 1.4,0.275 2.7,0.275 z m -5.2,-10 H 29 L 31.95,21.8 24,16.1 15.95,21.8 Z m 17.8,4.5 Q 39,32.4 39.775,29.525 40.55,26.65 40.55,23.15 l -2.35,-1.65 -3.45,0.9 -2.95,9.25 1.8,3.2 z" />
</svg>
